X:1
T:Praeludium und Allegro
T:Praeludium und Allegro
T:G. Pugnami-Kreisler
C:G. Pugnami-Kreisler
%%score 1 ( 2 3 )
L:1/8
Q:1/4=144
M:4/4
K:G
V:1 treble nm="Violin" snm="Vln."
V:2 bass nm="Violoncello" snm="Vc."
V:3 bass 
V:1
"^Allegro"!f! !>!E2 !>!B,2 !>!E2 !>!B2 | !>!e2 !>!B2 !>!e2 !>!b2 |"^simile" e'2 e2 b2 B2 | %3
 e2 E2 B2 B,2 | e'2 e2 b2 B2 | e2 E2 B2 B,2 | c'2 e2 g2 c2 | f2 A2 c2 D2 |[K:G] b2 d2 f2 B2 | %9
 e2 G2 B2 C2 | a2 c2 e2 A2 | B2 f2 g2 e2 |({ef)} e2 ^d2 e2 f2 | B2 b2 e'2!<(! =d'2!<)! | %14
 c'2 d'2 e'2 g'2 | f'2 e'2 d'2 a2 | b2 d'2 g2 f2 | e2 g2 c2 B2 | ^A2 ^c2"^rit." f2 ^c'2 | %19
 ^d'2 b2 e'2 e2 | =c'2 A2 a2 e'2 | b'2 e2 b2 B,2 || %22
[M:3/4][Q:1/4=92]"^Andante" (E2 E/B,/)!tenuto!E/!tenuto!F/ !tenuto!G/!tenuto!E/!tenuto!G/!tenuto!A/ | %23
 !tenuto!B/!tenuto!G/!tenuto!B/!tenuto!^d/ !tenuto!e/!tenuto!B/!tenuto!e/!tenuto!f/ !tenuto!g/!tenuto!e/!tenuto!g/!tenuto!a/ | %24
 (b2 b/)(^g/=f/e/) d/f/d/c/ | B/d/B/A/ (^G/B/G/)=F/ (E/F/E/D/) | (C2 C/A,/)C/E/ =F/C/F/G/ | %27
 A/=F/A/B/ c/A/c/=f/ (a/f/a/c'/) | (e'2 e'/^c'/)_b/a/ g/b/g/=f/ | %29
 e/g/e/d/ (^c/e/c/)_B/ (A/B/A/G/) | (=F2 F/D/)F/A/ _B/F/B/d/ | (^G2 G/E/)G/=B/ e/d/c/B/ | %32
 (A2 A/E/)A/B/ c/A/c/e/ | (g2 g/)E/G/^A/ ^c/e/(g/e/) |!f! b3 f/g/ f/"^allargando"^d/B/d/ | %35
 f/g/f/^d/ B/c/B/G/ (F/B/)G/F/ | !fermata!B,6 ||[M:4/4][Q:1/4=144]"^Tempo I" E2 B,2 E2 B2 | %38
 e2 B2 e2 b2 | e'2 e2 b2 B2 | e2 E2 B2 B,2 | e'2 e2 b2 B2 | e2 E2 B2 B,2 | c'2 e2 g2 c2 | %44
 f2 A2 c2 D2 | b2 d2 f2 B2 | e2 G2 B2 C2 | a2 c2 e2 A2 | B2 f2 g2 e2 |({ef)} e2 ^d2 e2 f2 | %50
 B2 b2 e'2 =d'2 | c'2 d'2 e'2 g'2 | f'2 e'2 d'2 a2 | b2 d'2 g2 f2 | e2 g2 c2 B2 | %55
 ^A2"^rit." ^c2 f2 ^c'2 | ^d'2 b2 e'2 e2 | =c'2 A2 a2 e'2 | b'2 e2 b2 B,2 | !fermata!E8 || %60
[M:3/4]!p! (B | .e)d/c/ .B.A .G.F | %62
 !tenuto!E/!tenuto!F/!tenuto!E/!tenuto!F/ !tenuto!G/!tenuto!A/!tenuto!G/!tenuto!A/ !tenuto!B/!tenuto!g/!tenuto!f/!tenuto!e/ | %63
 ^d/f/A/c/ B/A/G/F/ A/G/F/E/ | ^D/F/B,/^A,/ B,/^C/D/E/ F/G/A/B/ | %65
 .G/.B/.e/.B/ .A/.c/.e/.c/ .G/.B/.e/.B/ | (A/g/)c'/g/ e'/g/c'/g/ (e/g/e/c/) | %67
 D/c/f/c/ D/d/f/d/ D/c/f/c/ | (G/f/)b/f/ d'/f/b/f/ (d/f/d/B/) | E/B/g/B/ E/c/g/c/ E/B/g/B/ | %70
 (F/e/)a/f/ c'/e/a/e/ (c/e/c/A/) | ^D/B/f/B/ E/B/g/B/ G/B/e/B/ | (B,/F/)B/^c/ ^d/B/f/d/ b(B | %73
 e)d/c/ BA GF | E/F/E/F/ G/A/G/A/ B/g/f/e/ | ^d/f/A/c/ B/A/G/F/ A/G/F/E/ | %76
 ^D/F/B,/^A,/ B,/^C/D/E/ F/G/A/B/ | A/[fb]/[fb]/[Af]/ [Ge]/[eb]/[eb]/[Ae]/ [Fd]/[db]/[db]/[Fd]/ | %78
 [DE]/[Be]/[Be]/[DE]/ [CE]/[Ae]/[Ae]/[CE]/ [A,G]/[ce]/[ce]/[A,G]/ | %79
 A/[ea]/[ea]/[Fe]/ [Fd]/[da]/[da]/[Fd]/ [Dc]/[ca]/[ca]/[Dc]/ | %80
 [B,A]/[Ad]/[Ad]/[B,A]/ [B,G]/[Gd]/[Gd]/[B,G]/ [G,F]/[Fd]/[Fd]/[G,F]/ | %81
 E/[dg]/[dg]/[Ed]/ [Ec]/[cg]/[cg]/[Ec]/ [DB]/[Bg]/[Bg]/[DB]/ | %82
 [EF]/[Be]/[Be]/[DE]/ [CE]/[Ae]/[Ae]/[DE]/ [A,E]/[ce]/[ce]/[A,G]/ | %83
 [B,G]/[Be]/[Be]/[B,G]/ [B,F]/[Be]/[Be]/[B,F]/ [B,F]/[^db]/[db]/B,/ | (E/F/)G/B/ e/f/g/b/ e' z | %85
!f! [G,DBg]/e/d/e/ d/B/G/E/ D/B,/G,/G/ | E/C/G,/A/ E/C/G,/A/ E/C/G,/c/ | %87
 G/E/G,/d/ A/F/G,/e/ B/G/E/c/ | A/F/d/B/ G/E/c/A/ F/D/C/A,/ | %89
!p! [G,DBg]/e/d/e/ d/B/G/E/ D/B,/G,/G/ | E/C/G,/A/ E/C/G,/B/ F/D/G,/c/ | %91
 G/E/G,/d/ A/F/G,/e/ B/G/E/c/ | A/F/d/B/ G/E/^c/B/ ^A/F/E/^C/ | %93
!f! [B,Fdb]/g/f/g/ f/d/^c/B/ F/D/B,/B/ | G/E/^c/B/ F/d/B/G/ e/c/B/g/ | %95
 e/B/e/^c/ B/f/d/B/ F/d/B/F/ | G/e/B/G/ E/^c/B/F/ d/B/F/D/ | %97
!p! [B,Fdb]/f/g/f/ d/^c/B/F/ D/^C/B,/B/ | G/E/^c/B/ F/d/B/G/ e/c/B/g/ | %99
 e/B/e/^c/ B/f/d/B/ F/d/B/F/ | G/e/B/G/ E/^c/B/F/ d/B/F/D/ |!f! (B,/^A,/)B,/D/ F/B/d/f/ b/B/a/B/ | %102
 (^g/b/)g/e/ d/B/^G/E/ B,/D/E/d/ | (=c/A,/)B,/=C/ E/A/c/e/ a/A/g/A/ | %104
 (f/a/)f/d/ c/A/F/D/ A,/C/D/c/ | (B/G,/)A,/B,/ D/G/B/d/ g/G/f/G/ | (e/g/)e/d/ c/G/E/D/ C/E/G/B/ | %107
 (A/A,/)C/E/ F/A/c/e/ f/A/e/A/ | ^d/B/F/B/ d/B/f/d/ gB | ed/c/ BA GF | E/F/E/F/ G/A/G/A/ B/g/f/e/ | %111
 ^d/f/A/c/ B/A/G/F/ A/G/F/E/ | ^D/F/B,/^A,/ B,/^C/^D/E/ F/G/A/F/ |!p! TE(G/B/) e/B/g/e/ b/g/e'/b/ | %114
 Tc'(e/a/) c/e/A/c/ E/A/A,/G/ | TF(D/F/) A/d/f/d/ a/f/d'/a/ | Tb(g/b/) d/g/B/d/ G/B/G,/F/ | %117
!f! TE(C/E/) G/c/e/c/ g/e/c'/g/ | Ta(e/a/) c/e/A/c/ E/A/C/E/ | T^DB,/D/ F/B/^d/B/ f/d/b/f/ | %120
 Tg(e/^c/) ^A/c/A/G/ E/G/E/^C/ | B,(E/G/) B/^d/e/f/ g/B/g/e/ | d/b/e/c/ a/e/B/g/ e/e/c'/e/ | %123
 d/b/e/c/ a/e/f/d'/ e/e/c'/e/ | d/b/e/g/ e'/e/f/d'/ e/e/c'/e/ | a/f'/e/g/ e'/e/f/^d'/ e/g/e'/e/ | %126
 a/f'/e/c'/ a'/e/c'/a'/ e/b/g'/f/ | b/g'/e/a/ f'/e/f/d'/ e/a/f'/e/ | %128
 g/e'/e/e/ c'/e/g/e'/ e/f/d'/e/ | d/b/e/f/ d'/e/e/c'/ e/c/a/e/ | e/c'/e/d/ b/e/B/g/ e/d/b/e/ | %131
 c/a/e/A/ f/e/c/a/ e/B/g/e/ | A/f/e/B/ g/e/c/a/ e/B/g/e/ | d/b/e/^c/ ^a/e/=c/=a/ f/B/g/e/ | %134
"_cresc." c/f/e/e/ c'/e/c/a/ e/A/f/e/ | ^A/g/e/e/ ^c'/e/^c/^a/ e/A/g/e/ | %136
 B/^g/e/=f/ d'/e/d/b/ e/B/g/e/ | c/a/e/g/ ^d'/e/^d/c'/ e/c/a/e/ | ^c/^a/e/g/ e'/e/e/^c'/ e/c/a/e/ | %139
 ^A/g/e/G/ (e/^c/)c/A/ G/E/^C/^A,/ |!f! B,[GBe]/[GBe]/ [GBe][Ace] [FAe][Ace] | %141
 [GBe]B,/B,/ B,[GBe] [EBg][GBe] | [FBe]B,/B,/ B,[FBe] [GBe][FBe] | [FBe]B,/B,/ B,[F^db] B,b | %144
 e'd'/c'/ ba gf | e/^d/e/f/ Tg/f/g/a/ b/g/f/e/ | ^d/f/A/c/ B/A/G/F/ A/G/F/E/ | %147
 ^D/F/B,/^A,/ B,/^C/D/E/ F/G/A/F/ | E[EBe]/[FBe]/ [GBe][^GBe] [cee][Bde] | %149
 [Ace]A,/C/ E/A/c/e/ a/c'/a/g/ | f[Dcf]/[Ddf]/ [Def][Def] [Ddf][Ddf] | %151
 [G,DBf]G,/B,/ D/G/B/d/ g/b/g/f/ | e[CEB]/[CEB]/ [CEB][EBe] [FAe][GBe] | %153
 [Ace]A,/C/ E/A/c/e/ a/g/f/e/ | ^d[Bb]/[Bb]/ [Bb][EBg] [CEAe][A,Ec] | %155
 B,[Bb]/[Bb]/ [Bb]"^rit."[EBg] [CEAe][A,Ec] | B,[Bb]/[Bb]/ [Bb][EBg] [CEAe][A,Ec] | %157
 [B,F^db]2 (!fermata!B,2 B,/)^C/4^D/4E/4F/4G/4A/4 |[Q:1/4=92]"^Andante" B2 AG{EFG} (TF2 | %159
 E)(3(E/F/{/A}G/) F3 !>!E | !>!!fermata!E6 |] %161
V:2
"^div.*"!f! E,8 | E,8 | E,8 | E,8 | E,8 | E,8 | vA,8 | D,8 |[K:G] G,8 | C,8 | F,8 | B,,8 | %12
"^unis." vB,,4 vA,,4 | ^G,,8 | vA,,4 C,4 | D,4 F,,4 | G,,4 B,,4 | C,4 E,4 |"^rit." F,8 | %19
 uB,,4 uC,4 |"^div." F,8 |!<(! B,,4 B,,2 B,,2!<)! ||[M:3/4] ([E,,B,,]6 | [E,,B,,]6) | ([E,,D,]6 | %25
 [E,,D,]6) | ([A,,=F,]6 |"^* Doublebass should play bottom if available" [A,,F,]6) | ([A,,G,]6 | %29
 [A,,G,]6) |"^unis." D,,6 | D,,6 | C,,6 |"_cresc." E,,6 |!f!"^div.""^allargando" ([B,,F,]6 | %35
 (u[B,,F,]6) | !fermata![B,,F,]6) ||[M:4/4]!p! v[E,,E,]8 | [E,,E,]8 | [E,,E,]8 | [E,,E,]8 | %41
 [E,,E,]8 | [E,,E,]8 | v[A,,A,]8 | D,8 | G,8 | C,8 | F,8 | B,,8 |"^unis." vB,,4 vA,,4 | u^G,,8 | %51
 vA,,4 C,4 | D,4 F,,4 | G,,4 B,,4 | C,4 E,4 |"^rit." F,8 | uB,,4 uC,4 |"^div." [F,,F,]8 | %58
!<(! B,,4 B,,2 B,,2!<)! |!f! !fermata![E,,B,,]8 ||[M:3/4] z |!p! E,>.F, .G,.A, .B,.B,, | E,4 G,,2 | %63
 B,,2 ^D,2 E,2 | B,,4"^div." z2 | u[E,,E,]6 | [A,,E,]6 | [D,,D,]6 | v[G,,D,]6 | [C,,C,]6 | %70
"^unis." F,,6 | uB,,2 vB,,2 B,,2 | [B,,F,]4 z2 | E,>.F, .G,.A, .B,.B,, | E,4 G,,2 | B,,2 ^D,2 E,2 | %76
 B,,4 z2 |"^div." [B,,E,]6 |"^unis." A,,6 | D,4 uF,,2 | vG,,6 | uC,4 G,,2 | A,,4 vC,2 | %83
 uB,,2 B,,2 B,,2 | vE,4 uE,, z |!f! vG,, z!mf! (v[G,,D,]4 | ([G,,D,]6) | ([G,,D,]6) | [G,,D,]6) | %89
!f! vG,, z!p! ([G,,D,]4 | ([G,,D,]6) | ([G,,D,]6) | [G,,D,]3) vE, uF,2 | %93
!f! vB,, z"^div."!mf! (v[B,,F,]4 | ([B,,F,]6) | ([B,,F,]6) | [B,,F,]6) | %97
"^unis."!f! B,, z"^div."!p! ([B,,F,]4 | ([B,,F,]6) | ([B,,F,]6) | [B,,F,]6) | %101
!f! v[B,,F,]4"^unis." B,2 | B,4 ^G,,2 | A,,4 C2 | A,4 F,,2 | G,,4 B,2 | C4"^div." [E,,E,]2 | %107
 [F,,F,]4"^unis." A,,2 | B,,4 z2 | E,>.F, .G,.A, .B,.B,, | E,4 G,,2 | B,,2 ^D,2 E,2 | B,,4 z2 | %113
!p! .E,, z z2 z .uE, | .A,, z z2 z .uA,, | .D, z z2 z .uD, | .G,, z z2 z .uG,, | .C, z z2 z .uE, | %118
 .F,, z z2 z .uF,, | .B,, z z2 z .B,, | .B,, z z2 z2 |!p! (B,,6 | (B,,6) | (B,,6) | (B,,6) | %125
 (B,,6) | (B,,6) | (B,,6) | (B,,6) | (B,,6) | (B,,6) | (B,,6) | (B,,6) | (B,,6) | (B,,6) | (B,,6) | %136
 (B,,6) | (B,,6) | (B,,6) | B,,6) |!f! B,,4 B,2 | B,,4 B,2 | B,,4 B,2 |!<(! B,,4 B,2!<)! | %144
!ff! E,,F,, G,,A,, B,,B,, | E,4!f! uG,,2 | B,,2 u^D,2 uE,2 |"^molto" B,,4 B,,2 | E,4 E,2 | %149
 A,,4 A,,2 | D,4 D,2 | G,,4 G,,2 | C,4 C,2 | F,,4 F,,2 | vB,,2 E,,2 A,,2 | uB,,2"^rit." E,,2 A,,2 | %156
 vB,,2 E,,2 A,,F,, | !fermata!B,,4 z2 |!f! vG,,2 A,,2 (B,,2 | B,,2)"^rit." uB,,4 | %160
!ff! !fermata!E,,6 |] %161
V:3
 E,,8 | E,,8 | E,,8 | E,,8 | E,,8 | E,,8 | A,,8 | D,8 |[K:G] G,,8 | C,8 | F,,8 | B,,8 | x8 | x8 | %14
 x8 | x8 | x8 | x8 | x8 | x8 | F,,8 | B,,4 !>!vB,,2 !>!B,,2 ||[M:3/4] x6 | x6 | x6 | x6 | x6 | x6 | %28
 x6 | x6 | x6 | x6 | x6 | x6 | x6 | x6 | x6 ||[M:4/4] x8 | x8 | x8 | x8 | x8 | x8 | x8 | D,8 | %45
 G,,8 | C,8 | F,,8 | B,,8 | x8 | x8 | x8 | x8 | x8 | x8 | x8 | x8 | x8 | B,,4 vB,,2 uB,,2 | x8 || %60
[M:3/4] x | x6 | x6 | x6 | x6 | x6 | x6 | x6 | x6 | x6 | x6 | x6 | x6 | x6 | x6 | x6 | x6 | x6 | %78
 x6 | x6 | x6 | x6 | x6 | x6 | x6 | x6 | x6 | x6 | x6 | x6 | x6 | x6 | x6 | x6 | x6 | x6 | x6 | %97
 x6 | x6 | x6 | x6 | x6 | x6 | x6 | x6 | x6 | x6 | x6 | x6 | x6 | x6 | x6 | x6 | x6 | x6 | x6 | %116
 x6 | x6 | x6 | x6 | x6 | x6 | x6 | x6 | x6 | x6 | x6 | x6 | x6 | x6 | x6 | x6 | x6 | x6 | x6 | %135
 x6 | x6 | x6 | x6 | x6 | x6 | x6 | x6 | x6 | x6 | x6 | x6 | x6 | x6 | x6 | x6 | x6 | x6 | x6 | %154
 x6 | x6 | x6 | x6 | x6 | x6 | x6 |] %161

